svgs/stickers.svg

<svg width="192" height="192" viewBox="0 0 192 192" fill="none" xmlns="http://www.w3.org/2000/svg">
<path d="M170 78.9992C161.9 46.2669 132.335 22 97.0991 22C55.623 22 22 55.623 22 97.0991C22 132.335 46.2669 161.9 78.9992 170M170 78.9992C164.203 77.5649 158.141 76.802 151.901 76.802C110.425 76.802 76.802 110.425 76.802 151.901C76.802 158.141 77.5649 164.203 78.9992 170M170 78.9992L78.9992 170M81.3689 121.701C69.8672 121.362 46.5594 118.149 45.3416 108" stroke="black" stroke-width="12" stroke-linecap="round" stroke-linejoin="round"/>
<circle cx="55" cy="77" r="4" stroke="black" stroke-width="8"/>
<circle cx="81" cy="77" r="4" stroke="black" stroke-width="8"/>
</svg>

<svg xmlns="http://www.w3.org/2000/svg" width="192" height="192" fill="none" viewBox="0 0 192 192"><path stroke="#000" stroke-linecap="round" stroke-linejoin="round" stroke-width="12" d="M170 79c-8.1-32.733-37.665-57-72.9-57C55.622 22 22 55.623 22 97.1c0 35.235 24.267 64.8 57 72.9m91-91a75.3 75.3 0 0 0-18.099-2.198c-41.476 0-75.099 33.623-75.099 75.099 0 6.24.763 12.302 2.197 18.099M170 79l-91 91m2.369-48.299c-11.502-.339-34.81-3.552-36.027-13.701"/><circle cx="55" cy="77" r="4" stroke="#000" stroke-width="8"/><circle cx="81" cy="77" r="4" stroke="#000" stroke-width="8"/></svg>
